Apricity Icons/apps/scalable/preferences-system.svg

<svg viewBox="0 0 48 48"><defs><linearGradient id="linearGradient3764" x1="1" x2="47" gradientUnits="userSpaceOnUse" gradientTransform="matrix(0,-1,1,0,-1.5e-6,47.999998)"><stop stop-color="#dddccd" stop-opacity="1"/><stop offset="1" stop-color="#e5e4d9" stop-opacity="1"/></linearGradient><clipPath id="clipPath-036475325"><g transform="translate(0,-1004.3622)"><path d="m -24 13 c 0 1.105 -0.672 2 -1.5 2 -0.828 0 -1.5 -0.895 -1.5 -2 0 -1.105 0.672 -2 1.5 -2 0.828 0 1.5 0.895 1.5 2 z" transform="matrix(15.333333,0,0,11.5,414.99999,878.8622)" fill="#1890d0"/></g></clipPath><clipPath id="clipPath-048432972"><g transform="translate(0,-1004.3622)"><path d="m -24 13 c 0 1.105 -0.672 2 -1.5 2 -0.828 0 -1.5 -0.895 -1.5 -2 0 -1.105 0.672 -2 1.5 -2 0.828 0 1.5 0.895 1.5 2 z" transform="matrix(15.333333,0,0,11.5,414.99999,878.8622)" fill="#1890d0"/></g></clipPath></defs><g><path d="m 36.31 5 c 5.859 4.062 9.688 10.831 9.688 18.5 c 0 12.426 -10.07 22.5 -22.5 22.5 c -7.669 0 -14.438 -3.828 -18.5 -9.688 c 1.037 1.822 2.306 3.499 3.781 4.969 c 4.085 3.712 9.514 5.969 15.469 5.969 c 12.703 0 23 -10.298 23 -23 c 0 -5.954 -2.256 -11.384 -5.969 -15.469 c -1.469 -1.475 -3.147 -2.744 -4.969 -3.781 z m 4.969 3.781 c 3.854 4.113 6.219 9.637 6.219 15.719 c 0 12.703 -10.297 23 -23 23 c -6.081 0 -11.606 -2.364 -15.719 -6.219 c 4.16 4.144 9.883 6.719 16.219 6.719 c 12.703 0 23 -10.298 23 -23 c 0 -6.335 -2.575 -12.06 -6.719 -16.219 z" opacity="0.05"/><path d="m 41.28 8.781 c 3.712 4.085 5.969 9.514 5.969 15.469 c 0 12.703 -10.297 23 -23 23 c -5.954 0 -11.384 -2.256 -15.469 -5.969 c 4.113 3.854 9.637 6.219 15.719 6.219 c 12.703 0 23 -10.298 23 -23 c 0 -6.081 -2.364 -11.606 -6.219 -15.719 z" opacity="0.1"/><path d="m 31.25 2.375 c 8.615 3.154 14.75 11.417 14.75 21.13 c 0 12.426 -10.07 22.5 -22.5 22.5 c -9.708 0 -17.971 -6.135 -21.12 -14.75 a 23 23 0 0 0 44.875 -7 a 23 23 0 0 0 -16 -21.875 z" opacity="0.2"/></g><g><path d="m 24 1 c 12.703 0 23 10.297 23 23 c 0 12.703 -10.297 23 -23 23 -12.703 0 -23 -10.297 -23 -23 0 -12.703 10.297 -23 23 -23 z" fill="url(#linearGradient3764)" fill-opacity="1"/></g><g/><g><g clip-path="url(#clipPath-036475325)"><g transform="translate(1,1)"><g opacity="0.1"><!-- color: #e5e4d9 --><g><path d="m 17 10 l 14 0 l 0 12 l -14 0 m 0 -12" stroke="none" fill-rule="nonzero" fill-opacity="1" fill="#000"/><path d="m 23 16 c 0 3.313 -2.688 6 -6 6 c -3.313 0 -6 -2.688 -6 -6 c 0 -3.313 2.688 -6 6 -6 c 3.313 0 6 2.688 6 6 m 0 0" stroke="none" fill-rule="nonzero" fill-opacity="1" fill="#000"/><path d="m 22 16 c 0 2.762 -2.238 5 -5 5 c -2.762 0 -5 -2.238 -5 -5 c 0 -2.762 2.238 -5 5 -5 c 2.762 0 5 2.238 5 5 m 0 0" stroke="none" fill-rule="nonzero" fill-opacity="1" fill="#000"/><path d="m 37 16 c 0 3.313 -2.688 6 -6 6 c -3.313 0 -6 -2.688 -6 -6 c 0 -3.313 2.688 -6 6 -6 c 3.313 0 6 2.688 6 6 m 0 0" stroke="none" fill-rule="nonzero" fill-opacity="1" fill="#000"/><path d="m 14.5 16.324 l 2.082 1.676 l 2.918 -3.348 l -0.625 -0.652 l -2.293 2.699 l -1.367 -1.117 m -0.715 0.742" stroke="none" fill-rule="evenodd" fill-opacity="1" fill="#000"/><path d="m 31 26 l -14 0 l 0 12 l 14 0 m 0 -12" stroke="none" fill-rule="nonzero" fill-opacity="1" fill="#000"/><path d="m 25 32 c 0 3.313 2.688 6 6 6 c 3.313 0 6 -2.688 6 -6 c 0 -3.313 -2.688 -6 -6 -6 c -3.313 0 -6 2.688 -6 6 m 0 0" stroke="none" fill-rule="nonzero" fill-opacity="1" fill="#000"/><path d="m 26 32 c 0 2.762 2.238 5 5 5 c 2.762 0 5 -2.238 5 -5 c 0 -2.762 -2.238 -5 -5 -5 c -2.762 0 -5 2.238 -5 5 m 0 0" stroke="none" fill-rule="nonzero" fill-opacity="1" fill="#000"/><path d="m 11 32 c 0 3.313 2.688 6 6 6 c 3.313 0 6 -2.688 6 -6 c 0 -3.313 -2.688 -6 -6 -6 c -3.313 0 -6 2.688 -6 6 m 0 0" stroke="none" fill-rule="nonzero" fill-opacity="1" fill="#000"/><path d="m 29 30 l 0.832 0 l 1.168 1.5 l 1.172 -1.5 l 0.828 0 l -1.5 2 l 1.5 2 l -0.832 0 l -1.168 -1.5 l -1 1.5 l -1 0 l 1.5 -2" stroke="none" fill-rule="nonzero" fill-opacity="1" fill="#000"/></g></g></g></g></g><g><g clip-path="url(#clipPath-048432972)"><!-- color: #e5e4d9 --><g><path d="m 17 10 l 14 0 l 0 12 l -14 0 m 0 -12" fill="#5dba6f" stroke="none" fill-rule="nonzero" fill-opacity="1"/><path d="m 23 16 c 0 3.313 -2.688 6 -6 6 c -3.313 0 -6 -2.688 -6 -6 c 0 -3.313 2.688 -6 6 -6 c 3.313 0 6 2.688 6 6 m 0 0" fill="#5dba6f" stroke="none" fill-rule="nonzero" fill-opacity="1"/><path d="m 22 16 c 0 2.762 -2.238 5 -5 5 c -2.762 0 -5 -2.238 -5 -5 c 0 -2.762 2.238 -5 5 -5 c 2.762 0 5 2.238 5 5 m 0 0" fill="#ededed" stroke="none" fill-rule="nonzero" fill-opacity="1"/><path d="m 37 16 c 0 3.313 -2.688 6 -6 6 c -3.313 0 -6 -2.688 -6 -6 c 0 -3.313 2.688 -6 6 -6 c 3.313 0 6 2.688 6 6 m 0 0" fill="#5dba6f" stroke="none" fill-rule="nonzero" fill-opacity="1"/><path d="m 14.5 16.324 l 2.082 1.676 l 2.918 -3.348 l -0.625 -0.652 l -2.293 2.699 l -1.367 -1.117 m -0.715 0.742" fill="#5dba6f" stroke="none" fill-rule="evenodd" fill-opacity="1"/><path d="m 31 26 l -14 0 l 0 12 l 14 0 m 0 -12" fill="#eb594d" stroke="none" fill-rule="nonzero" fill-opacity="1"/><path d="m 25 32 c 0 3.313 2.688 6 6 6 c 3.313 0 6 -2.688 6 -6 c 0 -3.313 -2.688 -6 -6 -6 c -3.313 0 -6 2.688 -6 6 m 0 0" fill="#eb594d" stroke="none" fill-rule="nonzero" fill-opacity="1"/><path d="m 26 32 c 0 2.762 2.238 5 5 5 c 2.762 0 5 -2.238 5 -5 c 0 -2.762 -2.238 -5 -5 -5 c -2.762 0 -5 2.238 -5 5 m 0 0" fill="#ededed" stroke="none" fill-rule="nonzero" fill-opacity="1"/><path d="m 11 32 c 0 3.313 2.688 6 6 6 c 3.313 0 6 -2.688 6 -6 c 0 -3.313 -2.688 -6 -6 -6 c -3.313 0 -6 2.688 -6 6 m 0 0" fill="#eb594d" stroke="none" fill-rule="nonzero" fill-opacity="1"/><path d="m 29 30 l 0.832 0 l 1.168 1.5 l 1.172 -1.5 l 0.828 0 l -1.5 2 l 1.5 2 l -0.832 0 l -1.168 -1.5 l -1 1.5 l -1 0 l 1.5 -2" fill="#eb594d" stroke="none" fill-rule="nonzero" fill-opacity="1"/></g></g></g><g><path d="m 40.03 7.531 c 3.712 4.084 5.969 9.514 5.969 15.469 0 12.703 -10.297 23 -23 23 c -5.954 0 -11.384 -2.256 -15.469 -5.969 4.178 4.291 10.01 6.969 16.469 6.969 c 12.703 0 23 -10.298 23 -23 0 -6.462 -2.677 -12.291 -6.969 -16.469 z" opacity="0.1"/></g></svg>

<svg xmlns="http://www.w3.org/2000/svg" viewBox="0 0 48 48">
 <defs>
  <linearGradient id="linearGradient3764" x1="1" x2="47" gradientUnits="userSpaceOnUse" gradientTransform="matrix(0,-1,1,0,-1.5e-6,47.999998)">
   <stop style="stop-color:#dddccd;stop-opacity:1"/>
   <stop offset="1" style="stop-color:#e5e4d9;stop-opacity:1"/>
  </linearGradient>
 </defs>
 <g>
  <path d="m 36.31 5 c 5.859 4.062 9.688 10.831 9.688 18.5 c 0 12.426 -10.07 22.5 -22.5 22.5 c -7.669 0 -14.438 -3.828 -18.5 -9.688 c 1.037 1.822 2.306 3.499 3.781 4.969 c 4.085 3.712 9.514 5.969 15.469 5.969 c 12.703 0 23 -10.298 23 -23 c 0 -5.954 -2.256 -11.384 -5.969 -15.469 c -1.469 -1.475 -3.147 -2.744 -4.969 -3.781 z m 4.969 3.781 c 3.854 4.113 6.219 9.637 6.219 15.719 c 0 12.703 -10.297 23 -23 23 c -6.081 0 -11.606 -2.364 -15.719 -6.219 c 4.16 4.144 9.883 6.719 16.219 6.719 c 12.703 0 23 -10.298 23 -23 c 0 -6.335 -2.575 -12.06 -6.719 -16.219 z" style="opacity:0.05"/>
  <path d="m 41.28 8.781 c 3.712 4.085 5.969 9.514 5.969 15.469 c 0 12.703 -10.297 23 -23 23 c -5.954 0 -11.384 -2.256 -15.469 -5.969 c 4.113 3.854 9.637 6.219 15.719 6.219 c 12.703 0 23 -10.298 23 -23 c 0 -6.081 -2.364 -11.606 -6.219 -15.719 z" style="opacity:0.1"/>
  <path d="m 31.25 2.375 c 8.615 3.154 14.75 11.417 14.75 21.13 c 0 12.426 -10.07 22.5 -22.5 22.5 c -9.708 0 -17.971 -6.135 -21.12 -14.75 a 23 23 0 0 0 44.875 -7 a 23 23 0 0 0 -16 -21.875 z" style="opacity:0.2"/>
 </g>
 <g>
  <path d="m 24 1 c 12.703 0 23 10.297 23 23 c 0 12.703 -10.297 23 -23 23 -12.703 0 -23 -10.297 -23 -23 0 -12.703 10.297 -23 23 -23 z" style="fill:url(#linearGradient3764);fill-opacity:1"/>
 </g>
 <g>
  <g>
   <g transform="translate(1,1)">
    <g style="opacity:0.1">
     <!-- color: #e5e4d9 -->
     <g>
      <path d="m 18 11 c -3.312 0 -6 2.687 -6 6 c 0 3.312 2.687 6 6 6 l 14 0 c 3.312 0 6 -2.687 6 -6 c 0 -3.312 -2.687 -6 -6 -6 l -14 0 z m 0 16 c -3.313 0 -6 2.688 -6 6 c 0 3.313 2.688 6 6 6 l 14 0 c 3.313 0 6 -2.688 6 -6 c 0 -3.313 -2.688 -6 -6 -6 l -14 0 z" transform="translate(-1,-1)"/>
     </g>
    </g>
   </g>
  </g>
 </g>
 <g>
  <g>
   <!-- color: #e5e4d9 -->
   <g>
    <path d="m 17 10 c -3.312 0 -6 2.687 -6 6 c 0 3.312 2.687 6 6 6 l 14 0 c 3.312 0 6 -2.687 6 -6 c 0 -3.312 -2.687 -6 -6 -6 l -14 0 z" style="fill:#5dba6f;fill-opacity:1;stroke:none;fill-rule:nonzero"/>
    <path d="m 22 16 c 0 2.762 -2.238 5 -5 5 -2.762 0 -5 -2.238 -5 -5 0 -2.762 2.238 -5 5 -5 2.762 0 5 2.238 5 5 m 0 0" style="fill:#ededed;fill-opacity:1;stroke:none;fill-rule:nonzero"/>
    <path d="M 14.5,16.324 16.582,18 19.5,14.652 18.875,14 16.582,16.699 15.215,15.582 M 14.5,16.324" style="fill:#5dba6f;fill-opacity:1;stroke:none;fill-rule:evenodd"/>
    <path d="m 17 26 c -3.313 0 -6 2.688 -6 6 c 0 3.313 2.688 6 6 6 l 14 0 c 3.313 0 6 -2.688 6 -6 c 0 -3.313 -2.688 -6 -6 -6 l -14 0 z" style="fill:#eb594d;fill-opacity:1;stroke:none;fill-rule:nonzero"/>
    <path d="m 26 32 c 0 2.762 2.238 5 5 5 2.762 0 5 -2.238 5 -5 0 -2.762 -2.238 -5 -5 -5 -2.762 0 -5 2.238 -5 5 m 0 0" style="fill:#ededed;fill-opacity:1;stroke:none;fill-rule:nonzero"/>
    <path d="M 29,30 29.832,30 31,31.5 32.172,30 33,30 31.5,32 33,34 32.168,34 31,32.5 30,34 l -1,0 1.5,-2" style="fill:#eb594d;fill-opacity:1;stroke:none;fill-rule:nonzero"/>
   </g>
  </g>
 </g>
 <g>
  <path d="m 40.03 7.531 c 3.712 4.084 5.969 9.514 5.969 15.469 0 12.703 -10.297 23 -23 23 c -5.954 0 -11.384 -2.256 -15.469 -5.969 4.178 4.291 10.01 6.969 16.469 6.969 c 12.703 0 23 -10.298 23 -23 0 -6.462 -2.677 -12.291 -6.969 -16.469 z" style="opacity:0.1"/>
 </g>
</svg>
